Numix/48/actions/go-last.svg

<?xml version="1.0" encoding="UTF-8" standalone="no"?>
<svg
   xmlns:dc="http://purl.org/dc/elements/1.1/"
   xmlns:cc="http://creativecommons.org/ns#"
   xmlns:rdf="http://www.w3.org/1999/02/22-rdf-syntax-ns#"
   xmlns:svg="http://www.w3.org/2000/svg"
   xmlns="http://www.w3.org/2000/svg"
   xmlns:sodipodi="http://sodipodi.sourceforge.net/DTD/sodipodi-0.dtd"
   xmlns:inkscape="http://www.inkscape.org/namespaces/inkscape"
   width="48"
   height="48"
   viewBox="0 0 48 48"
   id="svg2"
   version="1.1"
   inkscape:version="0.91 r13725"
   sodipodi:docname="go-last.svg">
  <metadata
     id="metadata16">
    <rdf:RDF>
      <cc:Work
         rdf:about="">
        <dc:format>image/svg+xml</dc:format>
        <dc:type
           rdf:resource="http://purl.org/dc/dcmitype/StillImage" />
        <dc:title></dc:title>
      </cc:Work>
    </rdf:RDF>
  </metadata>
  <defs
     id="defs14" />
  <sodipodi:namedview
     pagecolor="#ffffff"
     bordercolor="#666666"
     borderopacity="1"
     objecttolerance="10"
     gridtolerance="10"
     guidetolerance="10"
     inkscape:pageopacity="0"
     inkscape:pageshadow="2"
     inkscape:window-width="1366"
     inkscape:window-height="704"
     id="namedview12"
     showgrid="true"
     inkscape:zoom="10.351888"
     inkscape:cx="20.782374"
     inkscape:cy="22.205289"
     inkscape:window-x="0"
     inkscape:window-y="27"
     inkscape:window-maximized="1"
     inkscape:current-layer="svg2">
    <inkscape:grid
       type="xygrid"
       id="grid4147" />
  </sodipodi:namedview>
  <g
     style="fill-rule:evenodd"
     id="g4"
     transform="matrix(0,-1,1,0,0,48)">
    <path
       style="fill:#268bd2"
       d="M 24,4 C 12.957031,4 4,12.957031 4,24 4,28.508221 5.5111912,32.654578 8.0292969,36 16,38 30,38 39.970703,36 42.488809,32.654578 44,28.508221 44,24 44,12.957031 35.042969,4 24,4 Z"
       id="path6"
       inkscape:connector-curvature="0"
       sodipodi:nodetypes="ssccss" />
    <path
       style="fill:#eaf4fb;fill-opacity:1"
       d="m 8,36 c 4,6 9.921875,8 16,8 6.066406,0 12,-2 16,-8"
       id="path8"
       inkscape:connector-curvature="0" />
  </g>
  <path
     style="fill:#eaf4fb;fill-opacity:1"
     d="m 35.999682,24.007494 c 0,-0.613281 -0.261719,-1.195312 -0.6875,-1.625 l -7.4375,-7.6875 c -0.402344,-0.425781 -0.976562,-0.671874 -1.5625,-0.6875 -0.929688,-0.03125 -1.761719,0.496094 -2.125,1.375 -0.363281,0.875 -0.167969,1.902344 0.5,2.5625 l 3.9375,4.0625 -16.625,0 0,4 16.625,0 -3.9375,4.0625 c -0.875,0.898438 -0.875,2.347657 0,3.25 0.875,0.898438 2.3125,0.898438 3.1875,0 l 7.4375,-7.6875 c 0.425781,-0.433593 0.6875,-1.015624 0.6875,-1.625 z"
     id="path10"
     inkscape:connector-curvature="0" />
</svg>

<svg width="48" xmlns="http://www.w3.org/2000/svg" height="48" viewBox="0 0 48 48" xmlns:xlink="http://www.w3.org/1999/xlink">
<g style="fill-rule:evenodd">
<path style="fill:#268bd2" d="M 44 24 C 44 12.957031 35.042969 4 24 4 C 12.957031 4 4 12.957031 4 24 C 4 35.042969 12.957031 44 24 44 C 35.042969 44 44 35.042969 44 24 Z "/>
<path style="fill:#fff;fill-opacity:.902" d="M 36 40 C 42 36 44 30.078125 44 24 C 44 17.933594 42 12 36 8 "/>
</g>
<path style="fill:#fff;fill-opacity:.902" d="M 36 24.007812 C 36 23.394531 35.738281 22.8125 35.3125 22.382812 L 27.875 14.695312 C 27.472656 14.269531 26.898438 14.023438 26.3125 14.007812 C 25.382812 13.976562 24.550781 14.503906 24.1875 15.382812 C 23.824219 16.257812 24.019531 17.285156 24.6875 17.945312 L 28.625 22.007812 L 12 22.007812 L 12 26.007812 L 28.625 26.007812 L 24.6875 30.070312 C 23.8125 30.96875 23.8125 32.417969 24.6875 33.320312 C 25.5625 34.21875 27 34.21875 27.875 33.320312 L 35.3125 25.632812 C 35.738281 25.199219 36 24.617188 36 24.007812 Z "/>
</svg>
